X: 25
T: Connie The Soldier
Z: jond
S: https://thesession.org/tunes/373#setting50233
R: jig
M: 6/8
L: 1/8
K: Dmaj
|:A3 AGA|=cBc E2D|EFG EFG|ABA GED|
ADA AGA|=cBc E2g|fdd cGG|1 FDD D3:|2 FDD D2e||
|:fdd ede|fdc d2e|(3fgaf ged|cAA A3|
efg e2g|bge dcB|AcG FGE|FDD D3:|

